src/assets/logo.svg

<?xml version="1.0" encoding="utf-8"?>
<!-- Generator: Adobe Illustrator 14.0.0, SVG Export Plug-In . SVG Version: 6.00 Build 43363)  -->
<!DOCTYPE svg PUBLIC "-//W3C//DTD SVG 1.1//EN" "http://www.w3.org/Graphics/SVG/1.1/DTD/svg11.dtd">
<svg version="1.1" id="Layer_1" xmlns="http://www.w3.org/2000/svg" xmlns:xlink="http://www.w3.org/1999/xlink" x="0px" y="0px"
	 viewBox="0 0 309 69" enable-background="new 0 0 309 69" xml:space="preserve">
<path fill-rule="evenodd" clip-rule="evenodd" fill="#124568" d="M145.66,24.218c0.004-0.15,0.348-0.446,0.519-0.446
	c3.268,0,7.585,0,10.85,0c0.163,0,0.478,0.388,0.476,0.583c-0.076,7.147-0.188,17.866-0.101,26.303
	c0.001,0.162-0.306,0.66-0.835,0.769c-2.381,0.49-9.104,1.085-10.633-0.821c-0.225-0.279-0.374-0.62-0.424-1.029
	c-18.928,12.261-22.109-27.419-0.018-16.122C145.573,29.763,145.577,26.841,145.66,24.218z M143.581,45.322
	c2.966-1.494,2.826-8.185-1.706-7.554c-2.678,0.931-3.408,6.964,0.414,7.671C142.543,45.485,143.434,45.398,143.581,45.322z"/>
<path fill-rule="evenodd" clip-rule="evenodd" fill="#8C1C1C" d="M273.418,24.62c2.64-0.681,8.309-0.64,10.951-0.274
	c0.17,0.06,0.461,0.511,0.461,0.669c0,8.29,0,16.58,0,24.869c0,0.241,0.034,1.328-0.942,1.393
	c-2.302,0.281-8.028,0.272-10.222-0.051c-0.126-0.048-0.47-0.153-0.633-0.432c-0.013-0.007-0.038-0.395-0.038-0.581
	c0-8.746,0-16.243,0.021-24.95C273.016,25.108,273.272,24.677,273.418,24.62z"/>
<path fill-rule="evenodd" clip-rule="evenodd" fill="#8C1C1C" d="M186.072,28.562c0.078,0.196,0.141,0.398,0.196,0.607
	c0.032,0.124-0.761,2.193-1.093,2.314c-2.121,0.768-4.945-1.539-6.995-0.15c-0.333,0.249-0.804,1.239-0.353,1.868
	c0.067,0.094,0.111,0.204,0.171,0.301c2.954,4.901,10.441,3.066,10.682,9.631c0.367,10.007-24.354,13.456-26.763,3.278
	c-0.051-0.215,1.459-3.314,1.807-3.253c2.359,0.419,4.538,2.159,6.773,1.24c0.08-0.034,0.362-0.155,0.588-0.724
	c0.117-0.295,0.141-0.963,0.068-1.348c-0.018-0.084-0.037-0.153-0.063-0.204c-0.009-0.017-0.018-0.034-0.026-0.051
	c-0.037-0.073-0.075-0.145-0.114-0.216c-2.656-4.764-9.803-3.371-9.073-10.638C162.65,23.535,183.035,20.759,186.072,28.562z"/>
<path fill-rule="evenodd" clip-rule="evenodd" fill="#124568" d="M47.824,43.796c-2.384,0.13-1.246,5.055-1.472,6.669
	c-0.115,0.345-0.582,0.555-0.735,0.561c-1.419,0.052-2.219,0.188-6.882-0.036c-0.165-0.007-0.44-0.401-0.453-0.628
	c-0.162-3.012,0.017-20.639,0.055-24.365c0.002-0.06,0.249-0.479,0.425-0.634c0.041-0.037,0.204-0.058,0.26-0.058
	c1.479,0.01,6.47,0.046,7.02,0.153c5.861,1.191,9.531,5.918,15.187,7.169c1.544-0.821,0.743-5.202,1.03-6.785
	c0.006-0.234,0.284-0.508,0.397-0.508c2.013,0,4.643,0,6.703,0c0.195,0,0.566,0.392,0.565,0.602
	c-0.023,7.17,0.471,24.03-0.132,24.722c-0.165,0.738-5.468,0.865-7.743,0.393"/>
<path fill-rule="evenodd" clip-rule="evenodd" fill="#8C1C1C" d="M191.353,36.874c-0.044-0.349-0.013-3.703,0.039-4.686
	c0.004-0.085,0.239-0.316,0.42-0.338c0.706-0.082,1.987,0.159,2.409-0.126c2.325-1.577,4.742-3.788,6.208-4.999
	c1.099-0.077,2.498-0.015,4.003,0.014c0.21,0.004,0.632,0.46,0.632,0.683c0,1.515,0,3.027,0,4.542
	c2.859,0.06,4.226-0.039,5.898,0.021c0.307,0.012,0.819,0.264,0.812,0.521c0.147,4.118-0.015,4.523-0.688,4.754
	c-0.631,0.215-4.379-0.031-6.021,0.097c-0.266,2.852,0.082,5.649,1.019,7.294c0.145,0.254,0.767,0.774,0.912,0.794
	c2.551,0.364,4.736-0.896,5.958-0.287c0.256,0.155,0.305,0.492,0.305,0.53c0,1.267,0,2.533,0,3.799c0,0.057-0.033,0.357-0.266,0.467
	c-5.198,2.274-14.957,1.836-17.608-0.862c-2.087-2.323-0.206-8.334-1.426-11.525c-0.34-0.335-1.457-0.205-2.194-0.23
	C191.688,37.333,191.387,37.122,191.353,36.874z"/>
<path fill-rule="evenodd" clip-rule="evenodd" fill="#124568" d="M106.629,31.7c2.347-0.574,7.346-0.347,10.17-0.165
	c1.138,0.543,1.203,2.065,1.141,3.406c2.115-1.856,4.252-3.689,8.936-2.977c2.288,2.347,1.148,6.134-0.746,8.191
	c-3.11,0.628-3.516-1.446-5.956-1.489c-3.591,0.843-2.236,7.439-2.464,10.584c-0.038,0.205,0.043,0.496-0.042,0.718
	c-0.008,0.753-0.578,1.249-1.075,1.298c-1.518,0.039-7.581,0.193-10.188-0.248c-0.131-0.049-0.381-0.76-0.381-0.92
	c0-5.592,0-11.651,0-17.255C106.023,32.61,106.406,31.754,106.629,31.7z"/>
<path fill-rule="evenodd" clip-rule="evenodd" fill="#8C1C1C" d="M241.238,40.505c0.009,0.081-0.133,0.453-0.22,0.551
	c-2.268,2.514-7.629,1.933-12.414,1.927c-0.589,4.297,2.674,4.566,2.887,4.6c4.449,0.658,6.823-3.251,9.309-1.629
	c0.156,0.13,0.366,0.938,0.315,1.027c-5.043,8.783-23.191,5.187-24.425-3.252C214.82,30.956,239.351,25.107,241.238,40.505z
	 M231.531,35.562c-2.219,0.369-3.273,3.155-2.182,4.444c0.993,0,1.986,0,2.98,0c0.85-0.797,0.99-2.719,0.418-3.885
	C232.636,35.892,232.388,35.518,231.531,35.562z"/>
<path fill-rule="evenodd" clip-rule="evenodd" d="M170.535,44.07"/>
<g>
	<path fill-rule="evenodd" clip-rule="evenodd" fill="#124568" d="M86.337,35.343c-4.752,2.002-9.089,5.776-10.961,7.538
		c-0.625,0.588-1.092-0.029-1.102-0.516c-0.075-3.413,1.385-6.714,3.241-8.789c0.476-0.53,1.875-1.598,2.072-1.723
		c4.177-2.659,7.884-2.57,9.704-2.523c1.489,0.039,6.629,0.463,9.493,3.226C99.514,33.26,92.552,32.725,86.337,35.343z"/>
	<path fill-rule="evenodd" clip-rule="evenodd" fill="#124568" d="M90.37,45.889c4.766-1.967,9.129-5.712,11.014-7.459
		c0.626-0.584,1.09,0.036,1.098,0.522c0.05,3.414-1.432,6.705-3.304,8.769c-0.479,0.526-1.888,1.583-2.084,1.709
		c-4.194,2.628-7.902,2.516-9.721,2.453c-1.488-0.052-6.627-0.511-9.471-3.294C77.177,47.881,84.136,48.465,90.37,45.889z"/>
</g>
<path fill-rule="evenodd" clip-rule="evenodd" d="M189.391,32.73"/>
<path fill-rule="evenodd" clip-rule="evenodd" fill="#8C1C1C" d="M268.96,40.505c0.01,0.081-0.132,0.453-0.219,0.551
	c-2.268,2.514-7.628,1.933-12.413,1.927c-0.588,4.297,2.674,4.566,2.889,4.6c4.447,0.658,6.823-3.251,9.307-1.629
	c0.156,0.13,0.367,0.938,0.315,1.027c-5.044,8.783-23.192,5.187-24.426-3.252C242.545,30.956,267.073,25.107,268.96,40.505z
	 M259.257,35.562c-2.222,0.369-3.274,3.155-2.185,4.444c0.993,0,1.986,0,2.979,0c0.852-0.797,0.991-2.719,0.419-3.885
	C260.358,35.892,260.112,35.518,259.257,35.562z"/>
</svg>

<?xml version="1.0" encoding="UTF-8" standalone="no"?>
<svg
   xmlns:dc="http://purl.org/dc/elements/1.1/"
   xmlns:cc="http://creativecommons.org/ns#"
   xmlns:rdf="http://www.w3.org/1999/02/22-rdf-syntax-ns#"
   xmlns:svg="http://www.w3.org/2000/svg"
   xmlns="http://www.w3.org/2000/svg"
   xmlns:sodipodi="http://sodipodi.sourceforge.net/DTD/sodipodi-0.dtd"
   xmlns:inkscape="http://www.inkscape.org/namespaces/inkscape"
   version="1.1"
   id="Layer_1"
   x="0px"
   y="0px"
   viewBox="0 0 247 29"
   enable-background="new 0 0 309 69"
   xml:space="preserve"
   sodipodi:docname="logo.svg"
   inkscape:version="1.0.1 (3bc2e813f5, 2020-09-07)"><metadata
   id="metadata33"><rdf:RDF><cc:Work
       rdf:about=""><dc:format>image/svg+xml</dc:format><dc:type
         rdf:resource="http://purl.org/dc/dcmitype/StillImage" /><dc:title></dc:title></cc:Work></rdf:RDF></metadata><defs
   id="defs31" /><sodipodi:namedview
   pagecolor="#ffffff"
   bordercolor="#666666"
   borderopacity="1"
   objecttolerance="10"
   gridtolerance="10"
   guidetolerance="10"
   inkscape:pageopacity="0"
   inkscape:pageshadow="2"
   inkscape:window-width="2421"
   inkscape:window-height="1398"
   id="namedview29"
   showgrid="false"
   inkscape:zoom="5.3063919"
   inkscape:cx="154.5"
   inkscape:cy="34.5"
   inkscape:window-x="0"
   inkscape:window-y="0"
   inkscape:window-maximized="0"
   inkscape:current-layer="Layer_1" />
<g
   id="g871"
   transform="translate(-38.215254,-23.772)"><path
     fill-rule="evenodd"
     clip-rule="evenodd"
     fill="#124568"
     d="M 145.66,24.218 C 145.664,24.068 146.008,23.772 146.179,23.772 149.447,23.772 153.764,23.772 157.029,23.772 157.192,23.772 157.507,24.16 157.505,24.355 157.429,31.502 157.317,42.221 157.404,50.658 157.405,50.82 157.098,51.318 156.569,51.427 154.188,51.917 147.465,52.512 145.936,50.606 145.711,50.327 145.562,49.986 145.512,49.577 126.584,61.838 123.403,22.158 145.494,33.455 145.573,29.763 145.577,26.841 145.66,24.218 Z M 143.581,45.322 C 146.547,43.828 146.407,37.137 141.875,37.768 139.197,38.699 138.467,44.732 142.289,45.439 142.543,45.485 143.434,45.398 143.581,45.322 Z"
     id="path2" /><path
     fill-rule="evenodd"
     clip-rule="evenodd"
     fill="#8c1c1c"
     d="M 273.418,24.62 C 276.058,23.939 281.727,23.98 284.369,24.346 284.539,24.406 284.83,24.857 284.83,25.015 284.83,33.305 284.83,41.595 284.83,49.884 284.83,50.125 284.864,51.212 283.888,51.277 281.586,51.558 275.86,51.549 273.666,51.226 273.54,51.178 273.196,51.073 273.033,50.794 273.02,50.787 272.995,50.399 272.995,50.213 272.995,41.467 272.995,33.97 273.016,25.263 273.016,25.108 273.272,24.677 273.418,24.62 Z"
     id="path4" /><path
     fill-rule="evenodd"
     clip-rule="evenodd"
     fill="#8c1c1c"
     d="M 186.072,28.562 C 186.15,28.758 186.213,28.96 186.268,29.169 186.3,29.293 185.507,31.362 185.175,31.483 183.054,32.251 180.23,29.944 178.18,31.333 177.847,31.582 177.376,32.572 177.827,33.201 177.894,33.295 177.938,33.405 177.998,33.502 180.952,38.403 188.439,36.568 188.68,43.133 189.047,53.14 164.326,56.589 161.917,46.411 161.866,46.196 163.376,43.097 163.724,43.158 166.083,43.577 168.262,45.317 170.497,44.398 170.577,44.364 170.859,44.243 171.085,43.674 171.202,43.379 171.226,42.711 171.153,42.326 171.135,42.242 171.116,42.173 171.09,42.122 171.081,42.105 171.072,42.088 171.064,42.071 171.027,41.998 170.989,41.926 170.95,41.855 168.294,37.091 161.147,38.484 161.877,31.217 162.65,23.535 183.035,20.759 186.072,28.562 Z"
     id="path6" /><path
     fill-rule="evenodd"
     clip-rule="evenodd"
     fill="#124568"
     d="M 47.824,43.796 C 45.44,43.926 46.578,48.851 46.352,50.465 46.237,50.81 45.77,51.02 45.617,51.026 44.198,51.078 43.398,51.214 38.735,50.99 38.57,50.983 38.295,50.589 38.282,50.362 38.12,47.35 38.299,29.723 38.337,25.997 38.339,25.937 38.586,25.518 38.762,25.363 38.803,25.326 38.966,25.305 39.022,25.305 40.501,25.315 45.492,25.351 46.042,25.458 51.903,26.649 55.573,31.376 61.229,32.627 62.773,31.806 61.972,27.425 62.259,25.842 62.265,25.608 62.543,25.334 62.656,25.334 64.669,25.334 67.299,25.334 69.359,25.334 69.554,25.334 69.925,25.726 69.924,25.936 69.901,33.106 70.395,49.966 69.792,50.658 69.627,51.396 64.324,51.523 62.049,51.051"
     id="path8" /><path
     fill-rule="evenodd"
     clip-rule="evenodd"
     fill="#8c1c1c"
     d="M 191.353,36.874 C 191.309,36.525 191.34,33.171 191.392,32.188 191.396,32.103 191.631,31.872 191.812,31.85 192.518,31.768 193.799,32.009 194.221,31.724 196.546,30.147 198.963,27.936 200.429,26.725 201.528,26.648 202.927,26.71 204.432,26.739 204.642,26.743 205.064,27.199 205.064,27.422 205.064,28.937 205.064,30.449 205.064,31.964 207.923,32.024 209.29,31.925 210.962,31.985 211.269,31.997 211.781,32.249 211.774,32.506 211.921,36.624 211.759,37.029 211.086,37.26 210.455,37.475 206.707,37.229 205.065,37.357 204.799,40.209 205.147,43.006 206.084,44.651 206.229,44.905 206.851,45.425 206.996,45.445 209.547,45.809 211.732,44.549 212.954,45.158 213.21,45.313 213.259,45.65 213.259,45.688 213.259,46.955 213.259,48.221 213.259,49.487 213.259,49.544 213.226,49.844 212.993,49.954 207.795,52.228 198.036,51.79 195.385,49.092 193.298,46.769 195.179,40.758 193.959,37.567 193.619,37.232 192.502,37.362 191.765,37.337 191.688,37.333 191.387,37.122 191.353,36.874 Z"
     id="path10" /><path
     fill-rule="evenodd"
     clip-rule="evenodd"
     fill="#124568"
     d="M 106.629,31.7 C 108.976,31.126 113.975,31.353 116.799,31.535 117.937,32.078 118.002,33.6 117.94,34.941 120.055,33.085 122.192,31.252 126.876,31.964 129.164,34.311 128.024,38.098 126.13,40.155 123.02,40.783 122.614,38.709 120.174,38.666 116.583,39.509 117.938,46.105 117.71,49.25 117.672,49.455 117.753,49.746 117.668,49.968 117.66,50.721 117.09,51.217 116.593,51.266 115.075,51.305 109.012,51.459 106.405,51.018 106.274,50.969 106.024,50.258 106.024,50.098 106.024,44.506 106.024,38.447 106.024,32.843 106.023,32.61 106.406,31.754 106.629,31.7 Z"
     id="path12" /><path
     fill-rule="evenodd"
     clip-rule="evenodd"
     fill="#8c1c1c"
     d="M 241.238,40.505 C 241.247,40.586 241.105,40.958 241.018,41.056 238.75,43.57 233.389,42.989 228.604,42.983 228.015,47.28 231.278,47.549 231.491,47.583 235.94,48.241 238.314,44.332 240.8,45.954 240.956,46.084 241.166,46.892 241.115,46.981 236.072,55.764 217.924,52.168 216.69,43.729 214.82,30.956 239.351,25.107 241.238,40.505 Z M 231.531,35.562 C 229.312,35.931 228.258,38.717 229.349,40.006 230.342,40.006 231.335,40.006 232.329,40.006 233.179,39.209 233.319,37.287 232.747,36.121 232.636,35.892 232.388,35.518 231.531,35.562 Z"
     id="path14" /><path
     fill-rule="evenodd"
     clip-rule="evenodd"
     d="M 170.535,44.07"
     id="path16" /><g
     id="g22">
	<path
   fill-rule="evenodd"
   clip-rule="evenodd"
   fill="#124568"
   d="M 86.337,35.343 C 81.585,37.345 77.248,41.119 75.376,42.881 74.751,43.469 74.284,42.852 74.274,42.365 74.199,38.952 75.659,35.651 77.515,33.576 77.991,33.046 79.39,31.978 79.587,31.853 83.764,29.194 87.471,29.283 89.291,29.33 90.78,29.369 95.92,29.793 98.784,32.556 99.514,33.26 92.552,32.725 86.337,35.343 Z"
   id="path18" />
	<path
   fill-rule="evenodd"
   clip-rule="evenodd"
   fill="#124568"
   d="M 90.37,45.889 C 95.136,43.922 99.499,40.177 101.384,38.43 102.01,37.846 102.474,38.466 102.482,38.952 102.532,42.366 101.05,45.657 99.178,47.721 98.699,48.247 97.29,49.304 97.094,49.43 92.9,52.058 89.192,51.946 87.373,51.883 85.885,51.831 80.746,51.372 77.902,48.589 77.177,47.881 84.136,48.465 90.37,45.889 Z"
   id="path20" />
</g><path
     fill-rule="evenodd"
     clip-rule="evenodd"
     d="M 189.391,32.73"
     id="path24" /><path
     fill-rule="evenodd"
     clip-rule="evenodd"
     fill="#8c1c1c"
     d="M 268.96,40.505 C 268.97,40.586 268.828,40.958 268.741,41.056 266.473,43.57 261.113,42.989 256.328,42.983 255.74,47.28 259.002,47.549 259.217,47.583 263.664,48.241 266.04,44.332 268.524,45.954 268.68,46.084 268.891,46.892 268.839,46.981 263.795,55.764 245.647,52.168 244.413,43.729 242.545,30.956 267.073,25.107 268.96,40.505 Z M 259.257,35.562 C 257.035,35.931 255.983,38.717 257.072,40.006 258.065,40.006 259.058,40.006 260.051,40.006 260.903,39.209 261.042,37.287 260.47,36.121 260.358,35.892 260.112,35.518 259.257,35.562 Z"
     id="path26" /></g>
</svg>
